X:1
T:Title
%%score { ( 1 3 ) | ( 2 4 ) }
L:1/8
Q:1/4=110
M:4/4
K:Ab
V:1 treble nm="Grand Piano"
V:3 treble 
V:2 bass 
V:4 bass 
V:1
 [Ec]4 [=D_c]2 [E=c]2 | [CA]6 [EG]2 | [DF]2 [FB]2 [FA]2 [DF]2 | [DF]4 [CE]4 | [EA]4 [EB]2 [Ec]2 | %5
w: A.~Beirly * *|||||
 [Fd]6 [=A,F]2 | [B,EG]2 [CEA]2 [=DB]2 [Dc]2 | B8 | [CE]4 [EA]2 B2 | c6 [Ae]2 | %10
w: |||||
 [=Af]2 [Ae]2 [Fd]2 [Fc]2 | [Fe]4 [Fd]4 | [=Ec]4 [EG]2 [EB]2 | A2 B2 c2 [Ee]2 | z4 G4 | [CA]6 z2 | %16
w: ||||||
 B4 d2 c2 | B3 G E4 | [Ec]4 [EA]2 B2 | c6 z2 | d4 c2 [GB]2 | [Ge]4 [CFA]2 [A,CG]2 | %22
w: ||||||
 [A,DF]2 [DFB]2 [CEA]2 .[B,EG]2 | [A,CA]8 |] %24
w: ||
V:2
 [A,,A,]4 [A,,A,]2 [A,,A,]2 | [A,,A,]6 [C,A,]2 | [D,A,]2 [D,D]2 [D,D]2 [D,A,]2 | %3
 [A,,A,]4 [A,,A,]4 | [C,A,]4 [B,,G,]2 [A,,A,]2 | [D,A,]6 C,2 | B,,2 B,,2 [B,,F,]2 [B,,A,]2 | %7
 E4 z4 | [A,,A,]4 [C,A,]2 [E,G,E]2 | [A,E]6 [_G,C]2 | [F,C]2 [F,C]2 [F,B,]2 [F,=A,]2 | %11
 [B,,B,]4 [B,,B,]4 | [C,G,]4 [C,C]2 [C,C]2 | [F,CF]2 [G,B,E]2 [A,E]2 [C,=A,]2 | z4 E2 z2 | %15
 [A,,A,]6 z2 | [E,G,E]4 [E,B,E]2 [E,A,E]2 | [E,G,E]4 [E,G,]4 | [A,,A,]4 [C,A,]2 [E,G,E]2 | %19
 [A,E]6 z2 | [F,A,D]4 [E,A,E]2 [D,B,]2 | z2 z[K:treble] c[K:bass] F,2 E,2 | D,2 B,,2 E,2 z D | %23
 A,,8 |] %24
V:3
 x8 | x8 | x8 | x8 | x8 | x8 | x8 | z4 D4 | x8 | x8 | x8 | x8 | x8 | x8 | [=DF]4 z2 _D2 | x8 | x8 | %17
 x8 | x8 | x8 | x8 | x8 | x8 | x8 |] %24
V:4
 x8 | x8 | x8 | x8 | x8 | x8 | x8 | [E,G,]8 | x8 | x8 | x8 | x8 | x8 | x8 | [B,,B,]4 [E,B,]4 | x8 | %16
 x8 | x8 | x8 | x8 | x8 | [C,C]4[K:treble][K:bass] z4 | z4 z2 E,2 | x8 |] %24

